static/img/kroki/438905b22bffb86e5dd6ffdcd6ea4098.svg

<?xml version="1.0" encoding="us-ascii" standalone="no"?><svg xmlns="http://www.w3.org/2000/svg" xmlns:xlink="http://www.w3.org/1999/xlink" contentStyleType="text/css" height="252px" preserveAspectRatio="none" style="width:466px;height:252px;" version="1.1" viewBox="0 0 466 252" width="466px" zoomAndPan="magnify"><defs/><g><!--class aws_dynamodb_table--><g id="elem_aws_dynamodb_table"><rect codeLine="23" fill="#3D176E" height="39.7891" id="aws_dynamodb_table" rx="2.5" ry="2.5" style="stroke:#000D19;stroke-width:0.5;" width="223" x="7" y="7"/><ellipse cx="22" cy="26.8945" fill="#ADD1B2" rx="11" ry="11" style="stroke:#181818;stroke-width:1.0;"/><path d="M24.9688,32.5352 Q24.3906,32.832 23.75,32.9727 Q23.1094,33.1289 22.4063,33.1289 Q19.9063,33.1289 18.5781,31.4883 Q17.2656,29.832 17.2656,26.707 Q17.2656,23.582 18.5781,21.9258 Q19.9063,20.2695 22.4063,20.2695 Q23.1094,20.2695 23.75,20.4258 Q24.4063,20.582 24.9688,20.8789 L24.9688,23.5977 Q24.3438,23.0195 23.75,22.7539 Q23.1563,22.4727 22.5313,22.4727 Q21.1875,22.4727 20.5,23.5508 Q19.8125,24.6133 19.8125,26.707 Q19.8125,28.8008 20.5,29.8789 Q21.1875,30.9414 22.5313,30.9414 Q23.1563,30.9414 23.75,30.6758 Q24.3438,30.3945 24.9688,29.8164 L24.9688,32.5352 Z " fill="#000000"/><text fill="#D9B8FF" font-family="Helvetica" font-size="17" lengthAdjust="spacing" textLength="181" x="41" y="32.7798">aws_dynamodb_table</text></g><!--class aws_kinesis_stream--><g id="elem_aws_kinesis_stream"><rect codeLine="26" fill="#3D176E" height="39.7891" id="aws_kinesis_stream" rx="2.5" ry="2.5" style="stroke:#000D19;stroke-width:0.5;" width="209" x="131" y="106.79"/><ellipse cx="146" cy="126.6845" fill="#ADD1B2" rx="11" ry="11" style="stroke:#181818;stroke-width:1.0;"/><path d="M148.9688,132.3252 Q148.3906,132.622 147.75,132.7627 Q147.1094,132.9189 146.4063,132.9189 Q143.9063,132.9189 142.5781,131.2783 Q141.2656,129.622 141.2656,126.497 Q141.2656,123.372 142.5781,121.7158 Q143.9063,120.0595 146.4063,120.0595 Q147.1094,120.0595 147.75,120.2158 Q148.4063,120.372 148.9688,120.6689 L148.9688,123.3877 Q148.3438,122.8095 147.75,122.5439 Q147.1563,122.2627 146.5313,122.2627 Q145.1875,122.2627 144.5,123.3408 Q143.8125,124.4033 143.8125,126.497 Q143.8125,128.5908 144.5,129.6689 Q145.1875,130.7314 146.5313,130.7314 Q147.1563,130.7314 147.75,130.4658 Q148.3438,130.1845 148.9688,129.6064 L148.9688,132.3252 Z " fill="#000000"/><text fill="#D9B8FF" font-family="Helvetica" font-size="17" lengthAdjust="spacing" textLength="167" x="165" y="132.5698">aws_kinesis_stream</text></g><!--class aws_kms_key--><g id="elem_aws_kms_key"><rect codeLine="29" fill="#3D176E" height="39.7891" id="aws_kms_key" rx="2.5" ry="2.5" style="stroke:#000D19;stroke-width:0.5;" width="158" x="156.5" y="206.58"/><ellipse cx="171.5" cy="226.4745" fill="#ADD1B2" rx="11" ry="11" style="stroke:#181818;stroke-width:1.0;"/><path d="M174.4688,232.1152 Q173.8906,232.412 173.25,232.5527 Q172.6094,232.7089 171.9063,232.7089 Q169.4063,232.7089 168.0781,231.0683 Q166.7656,229.412 166.7656,226.287 Q166.7656,223.162 168.0781,221.5058 Q169.4063,219.8495 171.9063,219.8495 Q172.6094,219.8495 173.25,220.0058 Q173.9063,220.162 174.4688,220.4589 L174.4688,223.1777 Q173.8438,222.5995 173.25,222.3339 Q172.6563,222.0527 172.0313,222.0527 Q170.6875,222.0527 170,223.1308 Q169.3125,224.1933 169.3125,226.287 Q169.3125,228.3808 170,229.4589 Q170.6875,230.5214 172.0313,230.5214 Q172.6563,230.5214 173.25,230.2558 Q173.8438,229.9745 174.4688,229.3964 L174.4688,232.1152 Z " fill="#000000"/><text fill="#D9B8FF" font-family="Helvetica" font-size="17" lengthAdjust="spacing" textLength="116" x="190.5" y="232.3598">aws_kms_key</text></g><!--class aws_rds_cluster--><g id="elem_aws_rds_cluster"><rect codeLine="32" fill="#3D176E" height="39.7891" id="aws_rds_cluster" rx="2.5" ry="2.5" style="stroke:#000D19;stroke-width:0.5;" width="174" x="285.5" y="7"/><ellipse cx="300.5" cy="26.8945" fill="#ADD1B2" rx="11" ry="11" style="stroke:#181818;stroke-width:1.0;"/><path d="M303.4688,32.5352 Q302.8906,32.832 302.25,32.9727 Q301.6094,33.1289 300.9063,33.1289 Q298.4063,33.1289 297.0781,31.4883 Q295.7656,29.832 295.7656,26.707 Q295.7656,23.582 297.0781,21.9258 Q298.4063,20.2695 300.9063,20.2695 Q301.6094,20.2695 302.25,20.4258 Q302.9063,20.582 303.4688,20.8789 L303.4688,23.5977 Q302.8438,23.0195 302.25,22.7539 Q301.6563,22.4727 301.0313,22.4727 Q299.6875,22.4727 299,23.5508 Q298.3125,24.6133 298.3125,26.707 Q298.3125,28.8008 299,29.8789 Q299.6875,30.9414 301.0313,30.9414 Q301.6563,30.9414 302.25,30.6758 Q302.8438,30.3945 303.4688,29.8164 L303.4688,32.5352 Z " fill="#000000"/><text fill="#D9B8FF" font-family="Helvetica" font-size="17" lengthAdjust="spacing" textLength="132" x="319.5" y="32.7798">aws_rds_cluster</text></g><!--link aws_dynamodb_table to aws_kinesis_stream--><g id="link_aws_dynamodb_table_aws_kinesis_stream"><path codeLine="35" d="M141.62,47.22 C162.13,64.36 187.3379,85.4203 207.8279,102.5603 " fill="none" id="aws_dynamodb_table-to-aws_kinesis_stream" style="stroke:#1A83AF;stroke-width:2.0;"/><polygon fill="#1A83AF" points="212.43,106.41,208.0933,97.5673,208.5949,103.2019,202.9603,103.7035,212.43,106.41" style="stroke:#1A83AF;stroke-width:2.0;"/></g><!--link aws_dynamodb_table to aws_kms_key--><g id="link_aws_dynamodb_table_aws_kms_key"><path codeLine="36" d="M112.01,46.93 C104.82,71.56 96.35,115.06 113.5,146.58 C128.45,174.05 152.1451,190.7941 178.1751,203.4641 " fill="none" id="aws_dynamodb_table-to-aws_kms_key" style="stroke:#1A83AF;stroke-width:2.0;"/><polygon fill="#1A83AF" points="183.57,206.09,177.2283,198.5545,179.0743,203.9017,173.7271,205.7477,183.57,206.09" style="stroke:#1A83AF;stroke-width:2.0;"/></g><!--link aws_kinesis_stream to aws_kms_key--><g id="link_aws_kinesis_stream_aws_kms_key"><path codeLine="37" d="M235.5,147.01 C235.5,164.15 235.5,183.06 235.5,200.2 " fill="none" id="aws_kinesis_stream-to-aws_kms_key" style="stroke:#1A83AF;stroke-width:2.0;"/><polygon fill="#1A83AF" points="235.5,206.2,239.5,197.2,235.5,201.2,231.5,197.2,235.5,206.2" style="stroke:#1A83AF;stroke-width:2.0;"/></g><!--link aws_rds_cluster to aws_kinesis_stream--><g id="link_aws_rds_cluster_aws_kinesis_stream"><path codeLine="38" d="M345.43,47.22 C321.42,64.36 291.3927,85.783 267.3927,102.923 " fill="none" id="aws_rds_cluster-to-aws_kinesis_stream" style="stroke:#1A83AF;stroke-width:2.0;"/><polygon fill="#1A83AF" points="262.51,106.41,272.1587,104.4346,266.5789,103.5041,267.5093,97.9243,262.51,106.41" style="stroke:#1A83AF;stroke-width:2.0;"/></g><!--link aws_rds_cluster to aws_kms_key--><g id="link_aws_rds_cluster_aws_kms_key"><path codeLine="39" d="M374.79,47.21 C376.75,72.15 376.73,115.99 357.5,146.58 C340.45,173.7 315.6681,190.6699 289.6081,203.5599 " fill="none" id="aws_rds_cluster-to-aws_kms_key" style="stroke:#1A83AF;stroke-width:2.0;"/><polygon fill="#1A83AF" points="284.23,206.22,294.0705,205.8152,288.7117,204.0032,290.5237,198.6444,284.23,206.22" style="stroke:#1A83AF;stroke-width:2.0;"/></g><!--SRC=[ZP31Ji9048RlVOfDE9DGYG8Naq92z4ACU3EccNPdOKDtbymkacfyTrkBPjsMmg6N-R_E_yrk9KU6QkzAfb1bI3QoEwdtGA1OGcIE2rCOOWCXG8mdORWqsbq4Lg2GFM3nZaxc418lMvdlD5hBRhne3lbkG-QWURFU4MXRHQYTHoqAi3PnZcHsSEZ9y5as5I8amwM3COydTzZ2376a4p8QZNWy2v6BLRrt_n5h-O4izXzjPHosD5iLFrIlPKruagr3V_EpZa_0kTGRTklDdXidqaZ_vkijS7EiQG65zMkiGqBZoZqkMbVXRCh5f1D-F0T7UVrq38usvQK6PNYMEiWAP9zHzEMbrLAqqgRM4LQhmrHL7vRXcBXDy-9GUpHHHy_mTH0dqt6oV1lUTpHTzqjJ7tM8zhA-tpKU_VnfyJS0]--></g></svg>

<svg xmlns="http://www.w3.org/2000/svg" width="466" height="252" viewBox="0 0 466 252"><rect width="223" height="39.789" x="7" y="7" fill="#3D176E" rx="2.5" ry="2.5" style="stroke:#000d19;stroke-width:.5"/><circle cx="22" cy="26.895" r="11" fill="#ADD1B2" style="stroke:#181818;stroke-width:1"/><path d="M24.969 32.535q-.578.297-1.219.438-.64.156-1.344.156-2.5 0-3.828-1.64-1.312-1.657-1.312-4.782t1.312-4.781q1.328-1.656 3.828-1.656.703 0 1.344.156.656.156 1.219.453v2.719q-.625-.578-1.219-.844-.594-.281-1.219-.281-1.343 0-2.031 1.078-.687 1.062-.687 3.156t.687 3.172q.688 1.062 2.031 1.062.625 0 1.219-.265.594-.281 1.219-.86z"/><text x="41" y="32.78" fill="#D9B8FF" font-family="Helvetica" font-size="17" textLength="181">aws_dynamodb_table</text><rect width="209" height="39.789" x="131" y="106.79" fill="#3D176E" rx="2.5" ry="2.5" style="stroke:#000d19;stroke-width:.5"/><circle cx="146" cy="126.684" r="11" fill="#ADD1B2" style="stroke:#181818;stroke-width:1"/><path d="M148.969 132.325q-.578.297-1.219.438-.64.156-1.344.156-2.5 0-3.828-1.64-1.312-1.657-1.312-4.782t1.312-4.781q1.328-1.656 3.828-1.656.703 0 1.344.156.656.156 1.219.453v2.719q-.625-.579-1.219-.844-.594-.281-1.219-.281-1.344 0-2.031 1.078-.687 1.062-.687 3.156t.687 3.172q.688 1.062 2.031 1.062.625 0 1.219-.265.594-.281 1.219-.86z"/><text x="165" y="132.57" fill="#D9B8FF" font-family="Helvetica" font-size="17" textLength="167">aws_kinesis_stream</text><rect width="158" height="39.789" x="156.5" y="206.58" fill="#3D176E" rx="2.5" ry="2.5" style="stroke:#000d19;stroke-width:.5"/><circle cx="171.5" cy="226.475" r="11" fill="#ADD1B2" style="stroke:#181818;stroke-width:1"/><path d="M174.469 232.115q-.578.297-1.219.438-.64.156-1.344.156-2.5 0-3.828-1.64-1.312-1.657-1.312-4.782t1.312-4.781q1.328-1.656 3.828-1.656.703 0 1.344.156.656.156 1.219.453v2.719q-.625-.578-1.219-.844-.594-.281-1.219-.281-1.344 0-2.031 1.078-.687 1.062-.687 3.156t.687 3.172q.688 1.062 2.031 1.062.625 0 1.219-.265.594-.281 1.219-.86z"/><text x="190.5" y="232.36" fill="#D9B8FF" font-family="Helvetica" font-size="17" textLength="116">aws_kms_key</text><rect width="174" height="39.789" x="285.5" y="7" fill="#3D176E" rx="2.5" ry="2.5" style="stroke:#000d19;stroke-width:.5"/><circle cx="300.5" cy="26.895" r="11" fill="#ADD1B2" style="stroke:#181818;stroke-width:1"/><path d="M303.469 32.535q-.578.297-1.219.438-.64.156-1.344.156-2.5 0-3.828-1.64-1.312-1.657-1.312-4.782t1.312-4.781q1.328-1.656 3.828-1.656.703 0 1.344.156.656.156 1.219.453v2.719q-.625-.578-1.219-.844-.594-.281-1.219-.281-1.344 0-2.031 1.078-.687 1.062-.687 3.156t.687 3.172q.688 1.062 2.031 1.062.625 0 1.219-.265.594-.281 1.219-.86z"/><text x="319.5" y="32.78" fill="#D9B8FF" font-family="Helvetica" font-size="17" textLength="132">aws_rds_cluster</text><path fill="none" d="M141.62 47.22c20.51 17.14 45.718 38.2 66.208 55.34" style="stroke:#1a83af;stroke-width:2"/><path fill="#1A83AF" d="m212.43 106.41-4.337-8.843.502 5.635-5.635.502z" style="stroke:#1a83af;stroke-width:2"/><path fill="none" d="M112.01 46.93c-7.19 24.63-15.66 68.13 1.49 99.65 14.95 27.47 38.645 44.214 64.675 56.884" style="stroke:#1a83af;stroke-width:2"/><path fill="#1A83AF" d="m183.57 206.09-6.342-7.536 1.846 5.348-5.347 1.846z" style="stroke:#1a83af;stroke-width:2"/><path fill="none" d="M235.5 147.01v53.19" style="stroke:#1a83af;stroke-width:2"/><path fill="#1A83AF" d="m235.5 206.2 4-9-4 4-4-4z" style="stroke:#1a83af;stroke-width:2"/><path fill="none" d="M345.43 47.22c-24.01 17.14-54.037 38.563-78.037 55.703" style="stroke:#1a83af;stroke-width:2"/><path fill="#1A83AF" d="m262.51 106.41 9.649-1.975-5.58-.93.93-5.58z" style="stroke:#1a83af;stroke-width:2"/><path fill="none" d="M374.79 47.21c1.96 24.94 1.94 68.78-17.29 99.37-17.05 27.12-41.832 44.09-67.892 56.98" style="stroke:#1a83af;stroke-width:2"/><path fill="#1A83AF" d="m284.23 206.22 9.84-.405-5.358-1.812 1.812-5.359z" style="stroke:#1a83af;stroke-width:2"/></svg>
